rospo-icon-theme-classic-common/24x24/places/folder-yellow-meocloud.svg

<svg height="24" width="24" xmlns="http://www.w3.org/2000/svg"><rect height="12" opacity=".2" rx="1" width="20" x="2" y="9.5"/><path d="m2 17c0 .554.446 1 1 1h18c .554 0 1-.446 1-1v-11c0-.554-.446-1-1-1h-10v-1c0-.554-.446-1-1-1h-7c-.554 0-1 .446-1 1" fill="#b58f1b"/><rect height="12" opacity=".2" rx="1" width="20" x="2" y="8.5"/><rect fill="#e4e4e4" height="8" rx="1" width="16" x="4" y="7"/><rect fill="#e2b322" height="12" rx="1" width="20" x="2" y="9"/><path d="m3 3c-.554 0-1 .446-1 1v .5c0-.554.446-1 1-1h7c .554 0 1 .446 1 1v-.5c0-.554-.446-1-1-1zm8 2v .5h10c .554 0 1 .446 1 1v-.5c0-.554-.446-1-1-1z" fill="#fff" opacity=".1"/><path d="m12.801 12c-.802 0-1.537.509-1.901 1.312-.159-.073-.328-.113-.5-.113-.6664 0-1.2315.557-1.32 1.301-.6464.25-1.079.931-1.0801 1.699 0 .994.716 1.801 1.5996 1.801h4.8005c.884 0 1.6-.807 1.6-1.801-.001-.764-.429-1.442-1.07-1.695.002-.034.002-.069.004-.104 0-1.325-.955-2.4-2.133-2.4zm0 1c .569 0 1.132.555 1.133 1.398v.002c-.001.015-.002.033-.002.041a1.0001 1.0001 0 0 0  .63.993c.213.083.437.377.438.765 0 .514-.324.801-.6.801h-4.8005c-.2752 0-.5986-.287-.5996-.799v-.002c.0014-.392.2271-.685.4414-.767a1.0001 1.0001 0 0 0  .6327-.815c.037-.307.215-.418.326-.418.023 0 .05.007.082.022a1.0001 1.0001 0 0 0 1.33-.496c.221-.488.609-.725.989-.725z" fill="#4f3e0c"/></svg>

<svg xmlns="http://www.w3.org/2000/svg" width="24" height="24" version="1">
 <rect style="opacity:0.2" width="20" height="12" x="2" y="9.5" rx="1" ry="1"/>
 <path style="fill:#b58f1b" d="M 2,17 C 2,17.554 2.446,18 3,18 H 21 C 21.554,18 22,17.554 22,17 V 6 C 22,5.446 21.554,5 21,5 H 11 V 4 C 11,3.446 10.554,3 10,3 H 3 C 2.446,3 2,3.446 2,4"/>
 <rect style="opacity:0.2" width="20" height="12" x="2" y="8.5" rx="1" ry="1"/>
 <rect style="fill:#dcdcdc" width="16" height="8" x="4" y="7" rx="1" ry="1"/>
 <rect style="fill:#e2b322" width="20" height="12" x="2" y="9" rx="1" ry="1"/>
 <path style="opacity:0.1;fill:#ffffff" d="M 3,3 C 2.446,3 2,3.446 2,4 V 4.5 C 2,3.946 2.446,3.5 3,3.5 H 10 C 10.554,3.5 11,3.946 11,4.5 V 4 C 11,3.446 10.554,3 10,3 Z M 11,5 V 5.5 H 21 C 21.554,5.5 22,5.946 22,6.5 V 6 C 22,5.446 21.554,5 21,5 Z"/>
 <path style="fill:#4f3e0c" d="M 12.801,12 C 11.999,12 11.264,12.509 10.9,13.312 10.741,13.239 10.572,13.199 10.4,13.199 9.7336,13.199 9.1685,13.756 9.08,14.5 8.4336,14.75 8.001,15.431 7.9999,16.199 7.9999,17.193 8.7159,18 9.5995,18 H 14.4 C 15.284,18 16,17.193 16,16.199 15.999,15.435 15.571,14.757 14.93,14.504 14.932,14.47 14.932,14.435 14.934,14.4 14.934,13.075 13.979,12 12.801,12 Z M 12.801,13 C 13.37,13 13.933,13.555 13.934,14.398 V 14.4 C 13.933,14.415 13.932,14.433 13.932,14.441 A 1.0001,1.0001 0 0 0 14.562,15.434 C 14.775,15.517 14.999,15.811 15,16.199 15,16.713 14.676,17 14.4,17 H 9.5995 C 9.3243,17 9.0009,16.713 8.9999,16.201 V 16.199 C 9.0013,15.807 9.227,15.514 9.4413,15.432 A 1.0001,1.0001 0 0 0 10.074,14.617 C 10.111,14.31 10.289,14.199 10.4,14.199 10.423,14.199 10.45,14.206 10.482,14.221 A 1.0001,1.0001 0 0 0 11.812,13.725 C 12.033,13.237 12.421,13 12.801,13 Z"/>
</svg>
